icons/product-hunt-fill.svg

<svg xmlns="http://www.w3.org/2000/svg" width="24" height="24" fill="none"><g clip-path="url(#a)"><g><path fill="#121212" d="M12 22C6.477 22 2 17.523 2 12C2 6.477 6.477 2 12 2C17.523 2 22 6.477 22 12C22 17.523 17.523 22 12 22ZM13.334 12H10.5V9H13.334C13.7318 9 14.1134 9.15804 14.3947 9.43934C14.676 9.72064 14.834 10.1022 14.834 10.5C14.834 10.8978 14.676 11.2794 14.3947 11.5607C14.1134 11.842 13.7318 12 13.334 12ZM13.334 7H8.5V17H10.5V14H13.334C14.2623 14 15.1525 13.6313 15.8089 12.9749C16.4653 12.3185 16.834 11.4283 16.834 10.5C16.834 9.57174 16.4653 8.6815 15.8089 8.02513C15.1525 7.36875 14.2623 7 13.334 7Z"/></g></g><defs><clipPath id="a"><rect width="24" height="24" fill="white"/></clipPath></defs></svg>

<svg width="24" height="24" fill="none" xmlns="http://www.w3.org/2000/svg"><g clip-path="url(#a)"><path d="M12 22C6.477 22 2 17.523 2 12S6.477 2 12 2s10 4.477 10 10-4.477 10-10 10Zm1.334-10H10.5V9h2.834a1.5 1.5 0 0 1 0 3Zm0-5H8.5v10h2v-3h2.834a3.5 3.5 0 1 0 0-7Z" /></g><defs><clipPath id="a"><path fill="#fff" d="M0 0h24v24H0z"/></clipPath></defs></svg>
